public/Blueberry.svg

<svg width="457" height="390" viewBox="0 0 457 390" fill="none" xmlns="http://www.w3.org/2000/svg">
<path d="M387.057 41.8594C423.683 19.6001 455.673 0.972027 455.673 0.972027M146.227 238.338C139.579 246.089 133.285 253.835 127.449 261.505M254.705 197.971C254.705 197.971 254.7 197.943 254.679 197.88C254.392 196.671 251.488 183.912 253.095 165.954C254.231 153.251 257.618 137.949 265.795 122.307L265.793 122.297C265.793 122.297 265.793 122.297 265.802 122.295L265.801 122.286L265.809 122.284C265.809 122.284 265.809 122.284 265.808 122.275M265.223 122.287L265.224 122.297L265.233 122.295M266.31 126.37C266.31 126.37 260.626 155.711 297.241 167.049M253.524 165.842C239.069 173.696 232.942 185.937 231.236 189.984M176.777 278.917C187.151 282.128 201.108 282.062 219.674 274.656M239.946 204.021C238.637 200.154 236.23 194.696 232.004 189.675C226.563 183.216 218.11 177.488 205.116 176.822C198.961 176.501 191.783 177.319 183.416 179.736C146.204 190.488 143.173 220.655 145.496 238.85C146.346 245.464 147.897 250.495 148.777 252.444C149.792 254.698 152.121 259.617 156.383 264.687M85.8158 294.578C76.7491 310.583 71.9897 332.547 81.1163 354.692C94.8627 388.075 123.09 393.751 152.305 384.447C181.519 375.142 196.836 337.321 193.087 314.928C191.101 303.044 186.604 288.895 177.698 278.366C172.684 272.426 166.255 267.642 158.085 265.053C153.44 263.578 148.222 262.825 142.38 262.967C136.385 263.116 131.248 263.597 126.841 264.296M82.0049 353.068C63.5288 375.836 39.4563 373.071 23.9686 360.055C19.5447 356.336 15.8111 351.771 13.1253 346.731C9.98963 340.848 8.14867 334.753 7.34207 328.729C5.0111 311.574 11.012 295.05 18.989 285.906C26.6541 277.115 40.4536 274.085 47.7732 273.064M12.8971 329.929C12.8971 329.929 3.42526 324.752 1.53879 332.541C-0.34769 340.331 8.3643 343.497 10.7339 351.133C13.1035 358.77 11.1917 369.121 15.4585 371.162C19.7237 373.193 25.702 370.147 24.6913 359.798M369.324 52.1934C369.324 52.1934 347.918 64.7599 354.505 102.119C361.093 139.488 386.968 148.859 386.968 148.859C405.858 122.024 403.768 92.9724 400.211 69.3863C398.269 56.4627 392.06 47.2269 386.172 42.8026M386.172 42.8026C385.405 42.2264 384.645 41.7356 383.908 41.3264C379.925 39.1367 377.551 40.4954 374.849 42.3161C367.344 47.3691 372.956 53.6337 382.051 49.749C383.949 48.9441 386.216 46.2583 386.172 42.8026ZM386.172 42.8026C386.178 41.9611 386.082 41.0564 385.888 40.1069C384.423 32.7791 377.106 22.5248 357.488 13.1101C324.96 -2.49716 284.813 2.26758 284.813 2.26758C284.813 2.26758 306.033 33.1705 324.938 51.6125M324.938 51.6125C338.237 48.3313 349.249 48.706 353.64 49.1313C362.887 50.0293 364.58 59.6312 347.918 64.7599C342.519 66.4208 333.998 60.4413 324.938 51.6125ZM324.938 51.6125C310.207 55.2433 292.662 63.3661 278.191 80.8686C278.191 80.8686 312.379 86.7763 336.779 72.0804C322.576 81.3919 296.825 97.3071 288.026 104.01C280.985 109.371 272.897 115.766 264.091 122.992C264.093 123.001 264.093 123.001 264.093 123.001L264.084 123.003C264.075 123.005 264.075 123.005 264.075 123.005L264.077 123.014M221.228 160.88C215.671 165.925 210.05 171.119 204.433 176.437M253.425 136.652C253.425 136.652 235.574 155.525 207.261 165.22C178.949 174.915 143.078 174.251 143.078 174.251C143.078 174.251 142.342 155.22 176.906 124.795C211.471 94.3703 246.635 111.92 252.722 116.929C258.8 121.94 257.753 127.196 246.798 128.942C235.843 130.688 203.929 99.1674 196.375 77.3309C188.156 53.5747 187.68 28.0223 187.68 28.0223C187.68 28.0223 221.187 43.447 247.496 71.767C273.806 100.087 262.758 119.156 262.758 119.156L262.748 119.148M205.86 102.278C205.86 102.278 182.143 92.9029 173.301 95.0016C173.301 95.0016 144.347 31.2636 63.5629 84.3311C63.5629 84.3311 80.205 112.58 115.787 112.031C151.37 111.481 164.784 94.4959 164.784 94.4959C164.784 94.4959 97.6879 92.9424 91.9344 84.6228M241.278 100.006C241.278 100.006 218.753 68.6086 215.111 64.5225C212.825 61.9626 201.604 64.9095 209.676 76.7227C218.67 89.8815 235.47 84.7182 235.47 84.7182M232.172 128.168C232.172 128.168 177.519 139.161 166.93 155.552M190.533 124.598C190.533 124.598 213.046 125.024 223.356 136.798M301.691 68.2335C301.691 68.2335 314.618 71.194 326.177 68.7981C337.736 66.4021 337.736 66.4021 337.736 66.4021M360.861 47.0363C360.861 47.0363 338.503 17.3593 317.858 18.3817M379.53 62.632C379.53 62.632 374.404 89.1483 378.691 108.719C382.979 128.289 371.795 125.238 369.593 112.8C367.39 100.361 381.451 91.9316 381.451 91.9316M368.712 64.0545C368.712 64.0545 380.442 68.6417 383.746 78.1717M281.826 197.472C281.826 197.472 286.466 165.459 323.964 157.474C356.221 150.611 372.838 190.531 367.613 208.345C364.501 218.963 354.971 244.595 313.849 247.246M103.1 77.9726C103.1 77.9726 124.682 80.3185 132.156 96.9717M349.06 26.3852C349.06 26.3852 332.915 36.2537 319.922 29.2192M258.036 198.389C252.169 199.222 244.73 202.491 239.852 205.68C218.016 221.104 208.279 249.467 218.988 275.476C221.914 282.575 227.207 291.952 233.735 296.416C271.311 322.119 306.721 286.165 309.753 275.03C311.073 270.183 315.926 257.568 313.726 239.674C313.726 239.674 310.847 218.031 293.734 205.806C277.014 193.846 258.036 198.389 258.036 198.389ZM127.827 260.525C127.827 260.525 127.299 261.244 126.313 262.464C105.017 267.377 101.13 273.748 101.13 273.748C95.577 278.046 89.8887 284.621 85.2995 292.735C79.6828 293.992 73.9046 293.87 68.2445 291.58C57.9233 287.406 51.0324 280.562 46.4808 273.111C38.5571 260.152 37.4263 249.512 38.2381 239.522C39.2829 226.625 48.8885 217.614 48.8885 217.614C62.3386 201.268 93.2361 190.931 113.979 209.231C134.711 227.524 127.827 260.525 127.827 260.525ZM57.7184 242.123C60.569 239.97 60.3332 223.771 68.3365 226.844C76.3398 229.917 77.0504 241.945 73.9715 243.939C70.8925 245.932 64.3608 248.934 63.5054 246.353C62.6499 243.773 64.4925 241.631 65.7092 242.855C66.9331 244.067 69.3186 261.053 65.1127 263.519C60.9068 265.984 50.7949 255.546 53.8221 254.394C56.8493 253.243 57.3778 253.969 57.7047 255.823C58.0316 257.677 51.2424 266.082 46.5214 259.899C41.8004 253.715 46.2387 244.569 50.1371 244.952C54.0514 245.322 57.7184 242.123 57.7184 242.123ZM260.623 267.617C263.006 267.03 261.832 252.26 269.337 253.759C276.843 255.257 278.302 265.783 276.608 268.728C274.914 271.673 270.799 271.132 271.489 268.207C272.18 265.282 290.051 256.267 291.641 263.988C293.231 271.708 287.911 281.452 281.476 281.446C275.042 281.439 273.734 277.476 270.984 278.964C268.234 280.452 274.112 294.004 264.27 293.716C254.429 293.428 253.629 276.364 256.194 276.09C258.761 275.825 260.064 276.37 260.306 278.869C260.547 281.368 256.619 287.594 247.286 281.445C237.95 275.288 244.624 265.242 249.299 264.376C253.963 263.504 254.355 269.166 260.623 267.617ZM126.266 346.116C128.686 346.259 131.48 331.626 138.219 335.324C144.957 339.021 143.567 349.636 141.177 351.971C138.789 354.315 135.013 352.556 136.446 349.933C137.878 347.31 157.246 343.945 156.717 351.887C156.188 359.829 148.556 367.659 142.438 365.729C136.318 363.789 136.126 359.573 133.115 360.189C130.104 360.805 132.112 375.667 122.835 372.439C113.558 369.211 117.303 352.468 119.814 352.975C122.325 353.481 123.423 354.408 122.992 356.897C122.561 359.385 117.177 364.232 109.928 355.49C102.679 346.748 111.681 339.024 116.352 339.59C121.022 340.146 119.907 345.747 126.266 346.116ZM330.834 203.333C337.669 203.808 331.246 212.626 336.119 214.179C339.535 215.259 343.955 217.494 342.721 223.065C341.738 227.49 330.136 234.093 324.311 222.611C321.304 216.69 330.501 218.035 330.239 220.821C330.012 223.194 326.407 231.092 321.902 230.639C317.388 230.187 313.031 226.869 314.954 220.927C316.26 216.89 321.06 217.988 321.902 211.064C322.63 205.042 324.983 202.93 330.834 203.333ZM159.8 218.909C163.473 215.427 166.378 226.459 168.234 226.466C171.095 226.465 172.072 216.873 176.234 225.861C180.397 234.849 173.606 239.98 171.463 237.569C169.319 235.157 171.396 233.409 172.148 233.943C172.909 234.474 177.896 246.324 172.987 251.912C168.079 257.51 159.705 241.588 161.874 241.088C164.043 240.588 167.402 241.75 164.482 244.264C161.562 246.778 156.424 245.997 156.12 237.639C155.816 229.282 160.658 234.607 161.282 231.305C161.907 228.003 155.242 223.225 159.8 218.909Z" stroke="white" stroke-width="2" stroke-miterlimit="10"/>
</svg>

<svg xmlns="http://www.w3.org/2000/svg" width="457" height="390" fill="none"><path stroke="#fff" stroke-miterlimit="10" stroke-width="2" d="M387.057 41.86C423.683 19.6 455.673.971 455.673.971M146.227 238.338c-6.648 7.751-12.942 15.497-18.778 23.167m127.256-63.534s-.005-.028-.026-.091c-.287-1.209-3.191-13.968-1.584-31.926 1.136-12.703 4.523-28.005 12.7-43.647l-.002-.01.009-.002-.001-.009.008-.002-.001-.009m-.585.012.001.01.009-.002m1.077 4.075s-5.684 29.341 30.931 40.679m-43.717-1.207c-14.455 7.854-20.582 20.095-22.288 24.142m-54.459 88.933c10.374 3.211 24.331 3.145 42.897-4.261m20.272-70.635c-1.309-3.867-3.716-9.325-7.942-14.346-5.441-6.459-13.894-12.187-26.888-12.853-6.155-.321-13.333.497-21.7 2.914-37.212 10.752-40.243 40.919-37.92 59.114.85 6.614 2.401 11.645 3.281 13.594 1.015 2.254 3.344 7.173 7.606 12.243m-70.567 29.891c-9.067 16.005-13.826 37.969-4.7 60.114 13.747 33.383 41.974 39.059 71.189 29.755 29.214-9.305 44.531-47.126 40.782-69.519-1.986-11.884-6.483-26.033-15.389-36.562-5.014-5.94-11.443-10.724-19.613-13.313-4.645-1.475-9.863-2.228-15.705-2.086-5.995.149-11.132.63-15.539 1.329m-44.836 88.772c-18.476 22.768-42.549 20.003-58.036 6.987-4.424-3.719-8.158-8.284-10.844-13.324a53.114 53.114 0 0 1-5.783-18.002c-2.33-17.155 3.67-33.679 11.647-42.823 7.665-8.791 21.465-11.821 28.784-12.842m-34.876 56.865s-9.472-5.177-11.358 2.612c-1.887 7.79 6.825 10.956 9.195 18.592 2.37 7.637.458 17.988 4.725 20.029 4.265 2.031 10.243-1.015 9.232-11.364M369.324 52.193s-21.406 12.567-14.819 49.926c6.588 37.369 32.463 46.74 32.463 46.74 18.89-26.835 16.8-55.887 13.243-79.473-1.942-12.923-8.151-22.16-14.039-26.583m0 0a19.718 19.718 0 0 0-2.264-1.477c-3.983-2.19-6.357-.83-9.059.99-7.505 5.053-1.893 11.318 7.202 7.433 1.898-.805 4.165-3.49 4.121-6.946Zm0 0c.006-.842-.09-1.747-.284-2.696-1.465-7.328-8.782-17.582-28.4-26.997C324.96-2.497 284.813 2.268 284.813 2.268s21.22 30.902 40.125 49.344m0 0c13.299-3.28 24.311-2.906 28.702-2.48 9.247.897 10.94 10.5-5.722 15.628-5.399 1.66-13.92-4.319-22.98-13.148Zm0 0c-14.731 3.631-32.276 11.754-46.747 29.257 0 0 34.188 5.907 58.588-8.789-14.203 9.312-39.954 25.227-48.753 31.93-7.041 5.361-15.129 11.756-23.935 18.982l.002.009-.009.002-.009.002.002.009m-42.849 37.866a1095.198 1095.198 0 0 0-16.795 15.557m48.992-39.785s-17.851 18.873-46.164 28.568c-28.312 9.695-64.183 9.031-64.183 9.031s-.736-19.031 33.828-49.456c34.565-30.425 69.729-12.875 75.816-7.866 6.078 5.011 5.031 10.267-5.924 12.013-10.955 1.746-42.869-29.775-50.423-51.611-8.219-23.756-8.695-49.309-8.695-49.309s33.507 15.425 59.816 43.745c26.31 28.32 15.262 47.389 15.262 47.389l-.01-.008m-56.888-16.87s-23.717-9.375-32.559-7.276c0 0-28.954-63.738-109.738-10.67 0 0 16.642 28.248 52.224 27.699 35.583-.55 48.997-17.535 48.997-17.535s-67.096-1.554-72.85-9.873m149.344 15.383s-22.525-31.397-26.167-35.484c-2.286-2.56-13.507.387-5.435 12.2 8.994 13.16 25.794 7.996 25.794 7.996m-3.298 43.45s-54.653 10.993-65.242 27.384m23.603-30.954s22.513.426 32.823 12.2m78.335-68.564s12.927 2.96 24.486.564l11.559-2.396m23.125-19.366s-22.358-29.677-43.003-28.654m61.672 44.25s-5.126 26.516-.839 46.087c4.288 19.57-6.896 16.519-9.098 4.081-2.203-12.439 11.858-20.868 11.858-20.868m-12.739-27.877s11.73 4.587 15.034 14.117m-101.92 119.3s4.64-32.013 42.138-39.998c32.257-6.863 48.874 33.057 43.649 50.871-3.112 10.618-12.642 36.25-53.764 38.901M103.1 77.973s21.582 2.346 29.056 18.999M349.06 26.385s-16.145 9.869-29.138 2.834m-61.886 169.17c-5.867.833-13.306 4.102-18.184 7.291-21.836 15.424-31.573 43.787-20.864 69.796 2.926 7.099 8.219 16.476 14.747 20.94 37.576 25.703 72.986-10.251 76.018-21.386 1.32-4.847 6.173-17.462 3.973-35.356 0 0-2.879-21.643-19.992-33.868-16.72-11.96-35.698-7.417-35.698-7.417Zm-130.209 62.136s-.528.719-1.514 1.939c-21.296 4.913-25.183 11.284-25.183 11.284-5.553 4.298-11.241 10.873-15.83 18.987-5.617 1.257-11.395 1.135-17.055-1.155-10.322-4.174-17.213-11.018-21.764-18.469-7.924-12.959-9.055-23.599-8.243-33.589 1.045-12.897 10.65-21.908 10.65-21.908 13.45-16.346 44.348-26.683 65.091-8.383 20.732 18.293 13.848 51.294 13.848 51.294Zm-70.109-18.402c2.851-2.153 2.615-18.352 10.618-15.279 8.004 3.073 8.714 15.101 5.636 17.095-3.08 1.993-9.611 4.995-10.467 2.414-.855-2.58.988-4.722 2.204-3.498 1.224 1.212 3.61 18.198-.596 20.664-4.206 2.465-14.318-7.973-11.29-9.125 3.026-1.151 3.555-.425 3.882 1.429.327 1.854-6.463 10.259-11.184 4.076-4.72-6.184-.282-15.33 3.616-14.947 3.914.37 7.581-2.829 7.581-2.829Zm202.905 25.494c2.383-.587 1.209-15.357 8.714-13.858 7.506 1.498 8.965 12.024 7.271 14.969-1.694 2.945-5.809 2.404-5.119-.521.691-2.925 18.562-11.94 20.152-4.219 1.59 7.72-3.73 17.464-10.165 17.458-6.434-.007-7.742-3.97-10.492-2.482-2.75 1.488 3.128 15.04-6.714 14.752-9.841-.288-10.641-17.352-8.076-17.626 2.567-.265 3.87.28 4.112 2.779.241 2.499-3.687 8.725-13.02 2.576-9.336-6.157-2.662-16.203 2.013-17.069 4.664-.872 5.056 4.79 11.324 3.241Zm-134.357 78.499c2.42.143 5.214-14.49 11.953-10.792 6.738 3.697 5.348 14.312 2.958 16.647-2.388 2.344-6.164.585-4.731-2.038 1.432-2.623 20.8-5.988 20.271 1.954-.529 7.942-8.161 15.772-14.279 13.842-6.12-1.94-6.312-6.156-9.323-5.54-3.011.616-1.003 15.478-10.28 12.25-9.277-3.228-5.532-19.971-3.021-19.464 2.511.506 3.609 1.433 3.178 3.922-.431 2.488-5.815 7.335-13.064-1.407s1.753-16.466 6.424-15.9c4.67.556 3.555 6.157 9.914 6.526Zm204.568-142.783c6.835.475.412 9.293 5.285 10.846 3.416 1.08 7.836 3.315 6.602 8.886-.983 4.425-12.585 11.028-18.41-.454-3.007-5.921 6.19-4.576 5.928-1.79-.227 2.373-3.832 10.271-8.337 9.818-4.514-.452-8.871-3.77-6.948-9.712 1.306-4.037 6.106-2.939 6.948-9.863.728-6.022 3.081-8.134 8.932-7.731ZM159.8 218.909c3.673-3.482 6.578 7.55 8.434 7.557 2.861-.001 3.838-9.593 8-.605 4.163 8.988-2.628 14.119-4.771 11.708-2.144-2.412-.067-4.16.685-3.626.761.531 5.748 12.381.839 17.969-4.908 5.598-13.282-10.324-11.113-10.824 2.169-.5 5.528.662 2.608 3.176-2.92 2.514-8.058 1.733-8.362-6.625-.304-8.357 4.538-3.032 5.162-6.334.625-3.302-6.04-8.08-1.482-12.396Z"/></svg>
